X:1
T:Sing and Praising Forever
T:Sing and Praising Forever
T:William Batchelder Bradubry
T:Fanny Crosby, 1866
T:Public Domain Courtesy of the Cyber Hymnal™
T:Public Domain Courtesy of the Cyber Hymnal™
C:William Batchelder Bradubry
Z:Public Domain
Z:Courtesy of the Cyber Hymnal™
%%score ( 1 2 ) ( 3 4 )
L:1/8
Q:1/4=103
M:6/8
K:A
V:1 treble 
V:2 treble 
V:3 bass 
V:4 bass 
V:1
 [CE]2 [CA] [CA]2 [DB] | [Ec]2 [Ec] [Ec]3 | [Ec]2 [Ec] (cB)[EA] | [Ec]3 [EB]3 | %4
w: 1.~Thro’ the new Je-|ru- sa- lem,|Lined with fair- * est|flow- ers,|
w: 2.~There are saints in|robes of white,|Who have gone * be-|fore us,|
 [CE]2 [CA] [CA]2 [DB] | [Ec]2 [Ec] [Ec]3 | [Ec][DB][CA] [DB][CA][B,G] | [CA]3 [CA]3 | %8
w: Flows a pure and|crys- tal stream,|Wa- t’ring the hea- ven- ly|bow- ers;|
w: With the an- gels|they u- nite,|Swell- ing the hea- ven- ly|cho- rus.|
 [Ec]2 [Ae] [Ae]2 [Ec] | [Ec]2 [EB] [EB]3 | [CA][CB][Cc] [Cc][CB][CA] | [Ec]3 [EB]3 | %12
w: On its banks we|hope to stand,|Close by the beau- ti- ful|ri- ver.|
w: And with them we|hope to stand,|Close by the beau- ti- ful|ri- ver.|
 [Ec]2 [Ee] [Ee]2 [Ec] | [Ec]2 [EB] [EB]3 | [Ec][DB][CA] [DB][CA][B,G] | [CA]3 [CA]3 || %16
w: Then to join the|ran- somed band,|Sing- ing and prais- ing for-|ev- er.|
w: Then to join the|ran- somed band,|Sing- ing and prais- ing for-|ev- er.|
"^Refrain" [Ec][Ec][Ec] [Ec][Ec][Ec] | [Fd]3 [Fd]3 | [EB][EB][EB] [EB][EB][EB] | [Ec]3 [Ec]3 | %20
w: ||||
w: ||||
 [DF]2 [DG] (BA)[DF] | [CE]2 C [CE]3 | [Ec][DB][CA] [DB][CA][B,G] | [CA]3 [CA]3 |] %24
w: ||||
w: ||||
V:2
 x6 | x6 | x3 E2 x | x6 | x6 | x6 | x6 | x6 | x6 | x6 | x6 | x6 | x6 | x6 | x6 | x6 || x6 | x6 | %18
 x6 | x6 | x3 D2 x | x2 C x3 | x6 | x6 |] %24
V:3
 [A,,A,]2 [A,,A,] [A,,A,]2 [A,,E,] | [A,,A,]2 A, A,3 | A,2 A, ([A,,A,][B,,G,])[C,A,] | %3
w: ~ ~ ~ ~|~ ~ ~|~ ~ ~ * ~|
 [E,A,]3 [E,G,]3 | A,2 A, A,2 A, | A,2 A, A,3 | [E,A,][E,G,][E,A,] G,A,[E,B,] | [A,,A,]3 [A,,A,]3 | %8
w: ~ ~|~ ~ ~ ~|~ ~ ~|~ ~ ~ ~ ~ ~|~ ~|
 A,2 [A,C] [A,C]2 A, | [E,A,]2 [E,G,] [E,G,]3 | [F,A,][F,A,][F,A,] [F,A,][F,B,][F,C] | %11
w: ~ ~ ~ ~|~ ~ ~|~ ~ ~ ~ ~ ~|
 [E,A,]3 [E,G,]3 | A,2 [A,C] [A,C]2 [A,,A,] | [E,A,]2 [E,G,] [E,G,]3 | %14
w: ~ ~|~ ~ ~ ~|~ ~ ~|
 [E,A,][E,B,][E,C] [E,G,][E,A,][E,B,] | [A,,A,]3 [A,,A,]3 || A,A,A, A,A,A, | [D,A,]3 [D,A,]3 | %18
w: ~ ~ ~ ~ ~ ~|~ ~|Close by the beau- ti- ful|ri- ver,|
 [E,G,][E,G,][E,G,] [E,G,][E,G,][E,G,] | A,3 [A,,A,]3 | [D,A,]2 [D,G,] [D,F,]2 [D,A,] | %21
w: Close by the beau- ti- ful|ri- ver,|There to join the|
 [A,,A,]2 [A,,E,] [A,,A,]3 | [E,A,][E,B,][E,C] [E,G,][E,A,][E,B,] | [A,,A,]3 [A,,A,]3 |] %24
w: ran- somed band,|Sing- ing and prais- ing for-|ev- er.|
V:4
 x6 | x2 A, A,3 | A,2 A, x3 | x6 | A,2 A, A,2 A, | A,2 A, A,3 | x3 E,2 x | x6 | A,2 x A, x2 | x6 | %10
 x6 | x6 | A,2 x4 | x6 | x6 | x6 || A,A,A, A,A,A, | x6 | x6 | A,3 x3 | x6 | x6 | x6 | x6 |] %24

